assets/MinimalTwitterIcon.svg

<svg fill="none" height="80" viewBox="0 0 87 80" width="87" xmlns="http://www.w3.org/2000/svg"><path clip-rule="evenodd" d="m70.95 21.1393c7.1958-8.9889 13.9859-18.41606 12.6568-20.498544-1.6089-2.520906-16.5922 2.891084-28.3412 7.632854-5.121-2.4825-10.8925-3.87827-16.998-3.87827-21.1346 0-38.2676 16.72506-38.2676 37.35646 0 20.6315 17.133 37.3565 38.2676 37.3565 21.1347 0 38.2677-16.725 38.2677-37.3565 0-2.8642-.3302-5.6532-.9555-8.3325 6.7035-4.8746 12.3731-9.7348 11.2469-11.5496-1.0417-1.6787-7.9955-1.515-15.8767-.7304z" fill="#1da1f2" fill-rule="evenodd"/></svg>

<svg width="87" height="80" viewBox="0 0 87 80" fill="none" xmlns="http://www.w3.org/2000/svg">
<path fill-rule="evenodd" clip-rule="evenodd" d="M70.95 21.1393C78.1458 12.1504 84.9359 2.72324 83.6068 0.640756C81.9979 -1.88015 67.0146 3.53184 55.2656 8.27361C50.1446 5.79111 44.3731 4.39534 38.2676 4.39534C17.133 4.39534 0 21.1204 0 41.7518C0 62.3833 17.133 79.1083 38.2676 79.1083C59.4023 79.1083 76.5353 62.3833 76.5353 41.7518C76.5353 38.8876 76.2051 36.0986 75.5798 33.4193C82.2833 28.5447 87.9529 23.6845 86.8267 21.8697C85.785 20.191 78.8312 20.3547 70.95 21.1393Z" fill="#1DA1F2"/>
</svg>
